static/img/svg/DataAnalysis.svg

<?xml version="1.0" ?><!DOCTYPE svg  PUBLIC '-//W3C//DTD SVG 1.1//EN'  'http://www.w3.org/Graphics/SVG/1.1/DTD/svg11.dtd'><svg enable-background="new 0 0 512 512" height="512px" id="Data_x5F_Analysis" version="1.1" viewBox="0 0 512 512" width="512px" xml:space="preserve" xmlns="http://www.w3.org/2000/svg" xmlns:xlink="http://www.w3.org/1999/xlink"><linearGradient gradientUnits="userSpaceOnUse" id="SVGID_1_" x1="21.998" x2="341.1887" y1="402.7939" y2="83.6033"><stop offset="0" style="stop-color:#00FFFF"/><stop offset="1" style="stop-color:#FF7BAC"/></linearGradient><rect fill="url(#SVGID_1_)" height="369.15" width="269.231" x="46.978" y="58.623"/><path d="M274.167,122.428c6.435,0,6.444-10,0-10c-20.664,0-176.323,0-183.986,0c-6.435,0-6.444,10,0,10  C90.181,122.428,266.504,122.428,274.167,122.428z" fill="#FFFFFF"/><path d="M274.167,158.122c6.435,0,6.444-10,0-10c-20.664,0-176.323,0-183.986,0c-6.435,0-6.444,10,0,10  C90.181,158.122,266.504,158.122,274.167,158.122z" fill="#FFFFFF"/><path d="M274.167,193.817c6.435,0,6.444-10,0-10c-20.664,0-176.323,0-183.986,0c-6.435,0-6.444,10,0,10  C90.181,193.817,266.504,193.817,274.167,193.817z" fill="#FFFFFF"/><path d="M222.512,230.382c6.434,0,6.444-10,0-10c-38.595,0-126.814,0-132.331,0c-6.435,0-6.444,10,0,10  C90.181,230.382,216.996,230.382,222.512,230.382z" fill="#FFFFFF"/><path d="M90.181,266.015c20.664,0,41.328,0,61.992,0c33.002,0,66.003,0,99.005,0c7.663,0,15.326,0,22.989,0  c6.435,0,6.444-10,0-10c-20.664,0-41.328,0-61.992,0c-33.002,0-66.003,0-99.005,0c-7.663,0-15.326,0-22.989,0  C83.746,256.015,83.736,266.015,90.181,266.015L90.181,266.015z" fill="#FFFFFF"/><path d="M274.167,301.709c6.435,0,6.444-10,0-10c-20.664,0-176.323,0-183.986,0c-6.435,0-6.444,10,0,10  C90.181,301.709,266.504,301.709,274.167,301.709z" fill="#FFFFFF"/><path d="M274.167,337.404c6.435,0,6.444-10,0-10c-20.664,0-176.323,0-183.986,0c-6.435,0-6.444,10,0,10  C90.181,337.404,266.504,337.404,274.167,337.404z" fill="#FFFFFF"/><path d="M222.512,373.969c6.434,0,6.444-10,0-10c-38.595,0-126.814,0-132.331,0c-6.435,0-6.444,10,0,10  C90.181,373.969,216.996,373.969,222.512,373.969z" fill="#FFFFFF"/><circle cx="279.463" cy="267.817" fill="#FFFFFF" r="87.567"/><path d="M461.244,424.707l-60.817-60.818l-5.375,5.375c-13.316-13.315-26.633-26.632-39.949-39.948  c2.097-2.543,4.089-5.192,5.938-7.972c25.443-38.193,19.284-90.114-12.587-122.516c-29.193-28.715-72.968-36.289-110.194-19.424  c-36.777,16.661-59.988,57.191-55.909,97.32c4.137,40.701,33.292,75.83,73.356,85.735c30.183,7.461,61.696-0.195,85.175-19.08  c13.343,13.342,26.686,26.685,40.028,40.027l-5.375,5.375l60.817,60.817c5.748,5.748,15.979,4.835,22.854-2.038  C466.079,440.687,466.992,430.455,461.244,424.707z M271.241,345c-32.204-3.02-59.442-27.633-67.133-58.742  c-7.67-31.024,5.218-64.984,31.923-82.748c30.814-20.498,71.934-16.455,98.28,9.46c22.342,22.714,29.491,58.063,15.71,87.228  C335.778,330.336,304.371,348.106,271.241,345z" fill="#3F5EAB"/></svg>

<svg width="512" height="512" viewBox="0 0 512 512" fill="none" xmlns="http://www.w3.org/2000/svg">
<path d="M316.209 58.623H46.978V427.773H316.209V58.623Z" fill="url(#paint0_linear)"/>
<path d="M274.167 122.428C280.602 122.428 280.611 112.428 274.167 112.428C253.503 112.428 97.844 112.428 90.181 112.428C83.746 112.428 83.737 122.428 90.181 122.428C90.181 122.428 266.504 122.428 274.167 122.428Z" fill="white"/>
<path d="M274.167 158.122C280.602 158.122 280.611 148.122 274.167 148.122C253.503 148.122 97.844 148.122 90.181 148.122C83.746 148.122 83.737 158.122 90.181 158.122C90.181 158.122 266.504 158.122 274.167 158.122Z" fill="white"/>
<path d="M274.167 193.817C280.602 193.817 280.611 183.817 274.167 183.817C253.503 183.817 97.844 183.817 90.181 183.817C83.746 183.817 83.737 193.817 90.181 193.817C90.181 193.817 266.504 193.817 274.167 193.817Z" fill="white"/>
<path d="M222.512 230.382C228.946 230.382 228.956 220.382 222.512 220.382C183.917 220.382 95.698 220.382 90.181 220.382C83.746 220.382 83.737 230.382 90.181 230.382C90.181 230.382 216.996 230.382 222.512 230.382Z" fill="white"/>
<path d="M90.181 266.015C110.845 266.015 131.509 266.015 152.173 266.015C185.175 266.015 218.176 266.015 251.178 266.015C258.841 266.015 266.504 266.015 274.167 266.015C280.602 266.015 280.611 256.015 274.167 256.015C253.503 256.015 232.839 256.015 212.175 256.015C179.173 256.015 146.172 256.015 113.17 256.015C105.507 256.015 97.844 256.015 90.181 256.015C83.746 256.015 83.736 266.015 90.181 266.015Z" fill="white"/>
<path d="M274.167 301.709C280.602 301.709 280.611 291.709 274.167 291.709C253.503 291.709 97.844 291.709 90.181 291.709C83.746 291.709 83.737 301.709 90.181 301.709C90.181 301.709 266.504 301.709 274.167 301.709Z" fill="white"/>
<path d="M274.167 337.404C280.602 337.404 280.611 327.404 274.167 327.404C253.503 327.404 97.844 327.404 90.181 327.404C83.746 327.404 83.737 337.404 90.181 337.404C90.181 337.404 266.504 337.404 274.167 337.404Z" fill="white"/>
<path d="M222.512 373.969C228.946 373.969 228.956 363.969 222.512 363.969C183.917 363.969 95.698 363.969 90.181 363.969C83.746 363.969 83.737 373.969 90.181 373.969C90.181 373.969 216.996 373.969 222.512 373.969Z" fill="white"/>
<path d="M279.463 355.384C327.825 355.384 367.03 316.179 367.03 267.817C367.03 219.455 327.825 180.25 279.463 180.25C231.101 180.25 191.896 219.455 191.896 267.817C191.896 316.179 231.101 355.384 279.463 355.384Z" fill="white"/>
<path d="M461.244 424.707L400.427 363.889L395.052 369.264C381.736 355.949 368.419 342.632 355.103 329.316C357.2 326.773 359.192 324.124 361.041 321.344C386.484 283.151 380.325 231.23 348.454 198.828C319.261 170.113 275.486 162.539 238.26 179.404C201.483 196.065 178.272 236.595 182.351 276.724C186.488 317.425 215.643 352.554 255.707 362.459C285.89 369.92 317.403 362.264 340.882 343.379C354.225 356.721 367.568 370.064 380.91 383.406L375.535 388.781L436.352 449.598C442.1 455.346 452.331 454.433 459.206 447.56C466.079 440.687 466.992 430.455 461.244 424.707ZM271.241 345C239.037 341.98 211.799 317.367 204.108 286.258C196.438 255.234 209.326 221.274 236.031 203.51C266.845 183.012 307.965 187.055 334.311 212.97C356.653 235.684 363.802 271.033 350.021 300.198C335.778 330.336 304.371 348.106 271.241 345Z" fill="#8D56A0"/>
<defs>
<linearGradient id="paint0_linear" x1="21.998" y1="402.794" x2="341.189" y2="83.6033" gradientUnits="userSpaceOnUse">
<stop stop-color="#9E09A2"/>
<stop offset="1" stop-color="#FF7BAC"/>
</linearGradient>
</defs>
</svg>
